X:2
T:The Skylark
R:reel
N:20th century Irish
C:James Morrison
D:The Professor, Viva Voce (2 cassette set)
D:Tommy Basker, The Tin Sandwich
H:Morrison recorded this popular key C reel in the 1930s.It is often played
in Key of D
N:This abc transcription is for personal use only,
N:provided this notice remains attached.
Z:Paul Stewart Cranford <psc@cranfordpub.com>
Q:300
L:1/8
M:C|
K:C
"A1"A|G2 ge decA|GEE2 CEGc|AFF2 DEFD|EGG2 EGce|!
"A5 used to vary A1" gfef decA|GEE2 CEGc|AFF2 Dagf|egdf ecc:|!
|:e|g/g/g ec Gcec|dedc BGG2|g2 eg agec|Addc defd|!
[1(e/f/g) eg f2 af|egdB cAAF|EGcG FAdc|Bdgf ecc:|!
[2 egg2 faa2|gede cAAF|EGcG FAdc|Bagf ecc|]!


